apps/16/libreoffice-base.svg

<?xml version="1.0" encoding="UTF-8"?>
<svg id="d" width="16" height="16" version="1.1" xmlns="http://www.w3.org/2000/svg" xmlns:cc="http://creativecommons.org/ns#" xmlns:dc="http://purl.org/dc/elements/1.1/" xmlns:rdf="http://www.w3.org/1999/02/22-rdf-syntax-ns#">
	<metadata id="a">
		<rdf:RDF>
			<cc:Work rdf:about="">
				<dc:format>image/svg+xml</dc:format>
				<dc:type rdf:resource="http://purl.org/dc/dcmitype/StillImage"/>
				<dc:title/>
			</cc:Work>
		</rdf:RDF>
	</metadata>
	<defs>
		<style id="current-color-scheme" type="text/css">.ColorScheme-Text {color:#090d11;}.ColorScheme-Background{color:#ffffff;}</style>
	</defs>
	<g id="c" transform="translate(8132.5 -1099)">
		<path id="b" d="m-8129.5 1100c-0.554 0-1 0.446-1 1v12c0 0.554 0.446 1 1 1h10c0.554 0 1-0.446 1-1v-8.3437l-4.6563-4.6563zm7.75 0 3.25 3.25v-2.25c0-0.554-0.446-1-1-1zm-2.75 6c1.6569 0 3 0.4477 3 1s-1.3431 1-3 1-3-0.4477-3-1 1.3431-1 3-1zm-3 3h2v1h-2zm4 0h2v1h-2zm-4 2h2v1h-2zm4 0h2v1h-2z" style="fill-opacity:.75;fill:currentColor" class="ColorScheme-Text"/>
		<path id="e" transform="translate(-8132.5 1099)" d="m3 0c-1.0907 0-2 0.9093-2 2v12c0 1.0907 0.9093 2 2 2h10c1.0907 0 2-0.9093 2-2v-7.3359-1.4219-3.2422c0-1.0907-0.9093-2-2-2h-3.2422-1.4219-5.3359zm0 1h6.3438l4.6562 4.6562v8.3438c0 0.554-0.446 1-1 1h-10c-0.554 0-1-0.446-1-1v-12c0-0.554 0.446-1 1-1zm7.75 0h2.25c0.554 0 1 0.446 1 1v2.25l-3.25-3.25zm-2.75 6c-1.6569 0-3 0.4477-3 1s1.3431 1 3 1 3-0.4477 3-1-1.3431-1-3-1zm-3 3v1h2v-1h-2zm4 0v1h2v-1h-2zm-4 2v1h2v-1h-2zm4 0v1h2v-1h-2z" style="fill-opacity:.5;fill:currentColor"  class="ColorScheme-Background"/>
	</g>
</svg>

<?xml version="1.0" encoding="UTF-8" standalone="no"?>
<!-- Created with Inkscape (http://www.inkscape.org/) -->

<svg
   xmlns:dc="http://purl.org/dc/elements/1.1/"
   xmlns:cc="http://creativecommons.org/ns#"
   xmlns:rdf="http://www.w3.org/1999/02/22-rdf-syntax-ns#"
   xmlns:svg="http://www.w3.org/2000/svg"
   xmlns="http://www.w3.org/2000/svg"
   xmlns:sodipodi="http://sodipodi.sourceforge.net/DTD/sodipodi-0.dtd"
   xmlns:inkscape="http://www.inkscape.org/namespaces/inkscape"
   width="16"
   height="16"
   id="svg27665"
   version="1.1"
   inkscape:version="0.48.3.1 r9886"
   sodipodi:docname="libreoffice-base.svg">
  <defs
     id="defs27667" />
  <sodipodi:namedview
     id="base"
     pagecolor="#ffffff"
     bordercolor="#666666"
     borderopacity="1.0"
     inkscape:pageopacity="0.0"
     inkscape:pageshadow="2"
     inkscape:zoom="40.960002"
     inkscape:cx="12.616027"
     inkscape:cy="7.3366216"
     inkscape:document-units="px"
     inkscape:current-layer="layer1"
     showgrid="true"
     inkscape:window-width="1920"
     inkscape:window-height="1033"
     inkscape:window-x="-10"
     inkscape:window-y="25"
     inkscape:window-maximized="1"
     inkscape:snap-bbox="true"
     inkscape:bbox-paths="true"
     inkscape:bbox-nodes="true"
     inkscape:snap-bbox-edge-midpoints="true"
     inkscape:snap-bbox-midpoints="true"
     inkscape:object-paths="true"
     inkscape:snap-intersection-paths="true"
     inkscape:object-nodes="true"
     inkscape:snap-smooth-nodes="true"
     inkscape:snap-midpoints="true"
     inkscape:snap-object-midpoints="true"
     inkscape:snap-center="true"
     inkscape:snap-global="true"
     showguides="false"
     inkscape:guide-bbox="true"
     fit-margin-top="0"
     fit-margin-left="0"
     fit-margin-right="0"
     fit-margin-bottom="0"
     inkscape:showpageshadow="false"
     showborder="true">
    <sodipodi:guide
       orientation="0,1"
       position="6886.8118,-211.77227"
       id="guide5860" />
    <sodipodi:guide
       orientation="1,0"
       position="6636.8118,-329.45509"
       id="guide5862" />
    <sodipodi:guide
       orientation="1,0"
       position="6886.8119,-211.77228"
       id="guide5866" />
    <inkscape:grid
       type="xygrid"
       id="grid5330"
       empspacing="5"
       visible="true"
       enabled="true"
       snapvisiblegridlinesonly="true"
       originx="-0.00012221875px"
       originy="76.999866px" />
    <sodipodi:guide
       orientation="1,0"
       position="-895.31213,514.03425"
       id="guide4740" />
  </sodipodi:namedview>
  <metadata
     id="metadata27670">
    <rdf:RDF>
      <cc:Work
         rdf:about="">
        <dc:format>image/svg+xml</dc:format>
        <dc:type
           rdf:resource="http://purl.org/dc/dcmitype/StillImage" />
        <dc:title />
      </cc:Work>
    </rdf:RDF>
  </metadata>
  <g
     inkscape:label="Camada 1"
     inkscape:groupmode="layer"
     id="layer1"
     transform="translate(8132.4741,-1099.0071)">
    <path
       id="path2988"
       d="m -8130.4741,1100.0071 0,14 12,0 0,-9.3437 -4.6563,-4.6563 -7.3437,0 z m 8.75,0 3.25,3.25 0,-3.25 -3.25,0 z m -2.75,6 c 1.6569,0 3,0.4477 3,1 0,0.5523 -1.3431,1 -3,1 -1.6569,0 -3,-0.4477 -3,-1 0,-0.5523 1.3431,-1 3,-1 z m -3,3 2,0 0,1 -2,0 0,-1 z m 4,0 2,0 0,1 -2,0 0,-1 z m -4,2 2,0 0,1 -2,0 0,-1 z m 4,0 2,0 0,1 -2,0 0,-1 z"
       style="font-size:medium;font-style:normal;font-variant:normal;font-weight:normal;font-stretch:normal;text-indent:0;text-align:start;text-decoration:none;line-height:normal;letter-spacing:normal;word-spacing:normal;text-transform:none;direction:ltr;block-progression:tb;writing-mode:lr-tb;text-anchor:start;baseline-shift:baseline;color:#000000;fill:#27303a;fill-opacity:0.75328081999999996;stroke:none;stroke-width:51.19525528;marker:none;visibility:visible;display:inline;overflow:visible;enable-background:accumulate;font-family:Sans;-inkscape-font-specification:Sans"
       inkscape:connector-curvature="0" />
    <path
       style="font-size:medium;font-style:normal;font-variant:normal;font-weight:normal;font-stretch:normal;text-indent:0;text-align:start;text-decoration:none;line-height:normal;letter-spacing:normal;word-spacing:normal;text-transform:none;direction:ltr;block-progression:tb;writing-mode:lr-tb;text-anchor:start;baseline-shift:baseline;color:#000000;fill:#f1f3f5;fill-opacity:0.90288714000000003;fill-rule:nonzero;stroke:none;stroke-width:2;marker:none;visibility:visible;display:inline;overflow:visible;enable-background:accumulate;font-family:Sans;-inkscape-font-specification:Sans"
       d="M 1 0 L 1 1 L 1 15 L 1 16 L 2 16 L 14 16 L 15 16 L 15 15 L 15 6.65625 L 15 5.65625 L 15 5.25 L 15 4.25 L 15 1 L 15 0 L 14 0 L 10.75 0 L 9.75 0 L 9.34375 0 L 8.34375 0 L 2 0 L 1 0 z M 2 1 L 9.34375 1 L 14 5.65625 L 14 15 L 2 15 L 2 1 z M 10.75 1 L 14 1 L 14 4.25 L 10.75 1 z M 8 7 C 6.3431 7 5 7.4477 5 8 C 5 8.5523 6.3431 9 8 9 C 9.6569 9 11 8.5523 11 8 C 11 7.4477 9.6569 7 8 7 z M 5 10 L 5 11 L 7 11 L 7 10 L 5 10 z M 9 10 L 9 11 L 11 11 L 11 10 L 9 10 z M 5 12 L 5 13 L 7 13 L 7 12 L 5 12 z M 9 12 L 9 13 L 11 13 L 11 12 L 9 12 z "
       transform="translate(-8132.4741,1099.0071)"
       id="path3008" />
  </g>
</svg>
